X:1335
T:Ballet CCLXVIII
C:Michael Praetorius
O:France
B:Michael Praetorius: Terpsichore (1612)
R:Ballet
Z:Transcribed by David Barnert - http://www.musicaviva.com
F:http://abc.musicaviva.com/tunes/praetorius-michael/praetorius-ballet.abc
%Posted August 29th 2000 at abcusers by David Barnert
M:C
L:1/4
Q:90
K:G
B3/c/BA|G3A/B/|c2cB|A3B/c/|
d2dc|BA/B/GA/B/|cBA/G/A|G4||
B3/c/ B/c/A/B/|G3/A/ B/c/d/B/|c2B2|A3B/c/|
d2c2|B/G/A/B/ c/B/A/G/|FG3/F//E//F|G3d|]
K:Gmin
d3/c/ B/c/d|c3/B/ A/B/c|B3/A/ G/A/B|A/G/^F/=E/Dd|
d3/c/ B/c/d|c3/B/ A/B/c|Bc/B/ A/G/A|G3d||
d/c/B/A/ B/c/d/B/|c/B/A/G/ A/B/c/A/|G/^F/G/A/B2|A3d|
d/c/d/e/ d/=e/f/d/|c/B/A/G/ A/B/c/B/|A/B/c/B/ A/G/A|G2G2|]
W:
W:
W:  From Musica Viva - http://www.musicaviva.com
W:  the Internet center for free sheet music downloads.
